icons/menu-unfold-fill.svg

<svg viewBox="0 0 24 24" fill="currentColor" xmlns="http://www.w3.org/2000/svg">
    <path d="M21 17.9996V19.9996H3V17.9996H21ZM17 3.5L22 8.49955L17 13.5V3.5ZM12 10.9996V12.9996H3V10.9996H12ZM12 3.99955V5.99955H3V3.99955H12Z"/>
</svg>

<svg xmlns="http://www.w3.org/2000/svg" viewBox="0 0 24 24">
    <g>
        <path fill="none" d="M0 0H24V24H0z"/>
        <path d="M21 18v2H3v-2h18zM17.05 3.55L22 8.5l-4.95 4.95v-9.9zM12 11v2H3v-2h9zm0-7v2H3V4h9z"/>
    </g>
</svg>
